dist/img/svg/maneken_icon.svg

<svg version="1.2" baseProfile="tiny-ps" xmlns="http://www.w3.org/2000/svg" width="850" height="1474"><style/><g id="Outline"><path id="&lt;Compound Path&gt;" fill-rule="evenodd" d="M787.77 996.55c25.04 98.58 37.73 221.2 37.73 364.45 0 9.1-7.4 16.5-16.5 16.5H513.5v79.5c0 9.1-7.4 16.5-16.5 16.5H353c-9.1 0-16.5-7.4-16.5-16.5v-79.5H41c-9.1 0-16.5-7.4-16.5-16.5 0-335.91 70.97-471.19 92.72-504.65l1.81-2.79L1.05 405.2c-2.18-8.3 2.25-16.77 10.31-19.71l157.14-57.14V257c0-6.79 4.07-12.8 10.38-15.32l112.16-44.86L312.99 109c1.84-7.36 8.43-12.5 16.01-12.5h31.5V17c0-9.1 7.4-16.5 16.5-16.5h96c9.1 0 16.5 7.4 16.5 16.5v79.5H521c7.58 0 14.17 5.14 16 12.5l21.97 87.82 112.16 44.86c6.3 2.52 10.37 8.53 10.37 15.32v71.35l157.14 57.14c8.07 2.93 12.5 11.41 10.32 19.71L731.81 850.35l-.85 3.21 1.82 2.79c11.88 18.27 34.81 60.79 54.99 140.2zm-106.29-140.2l15 .24c.04-1.29.23-2.56.55-3.79L813.2 411.36l-131.72-47.89v492.88zm110.89 480.57c-3.75-358.83-91.1-468.21-92.06-469.37a15.845 15.845 0 01-3.81-10.31l-15-.01V1073c0 9.1-7.4 16.5-16.5 16.5h-96c-9.1 0-16.5-7.4-16.5-16.5V307.03L508.12 129.5H341.88L297.5 307.03V1217c0 9.1-7.4 16.5-16.5 16.5h-96c-9.1 0-16.5-7.4-16.5-16.5V363.47L36.79 411.36 152.96 852.8c1.37 5.24.09 10.82-3.52 15.04-.88 1.06-88.07 110.54-91.81 469.08l-.08 7.58h734.9l-.08-7.58zM393.5 96.5h63v-63h-63v63zm-192 1008h63V305.01c0-1.34.17-2.68.51-4.01l16.15-64.7-79.66 31.87v20.33h7.5c9.1 0 16.5 7.4 16.5 16.5s-7.4 16.5-16.5 16.5h-7.5v63h7.5c9.1 0 16.5 7.4 16.5 16.5s-7.4 16.5-16.5 16.5h-7.5v63h7.5c9.1 0 16.5 7.4 16.5 16.5s-7.4 16.5-16.5 16.5h-7.5v63h7.5c9.1 0 16.5 7.4 16.5 16.5s-7.4 16.5-16.5 16.5h-7.5v63h7.5c9.1 0 16.5 7.4 16.5 16.5s-7.4 16.5-16.5 16.5h-7.5v63h7.5c9.1 0 16.5 7.4 16.5 16.5s-7.4 16.5-16.5 16.5h-7.5v63h7.5c9.1 0 16.5 7.4 16.5 16.5s-7.4 16.5-16.5 16.5h-7.5v63h7.5c9.1 0 16.5 7.4 16.5 16.5s-7.4 16.5-16.5 16.5h-7.5v111zm0 96h63v-63h-63v63zm279 177h-111v63h111v-63zm88.33-1141.2L585 301c.33 1.31.5 2.66.5 4v751.5h63v-63H641c-9.1 0-16.5-7.4-16.5-16.5s7.4-16.5 16.5-16.5h7.5v-63H641c-9.1 0-16.5-7.4-16.5-16.5s7.4-16.5 16.5-16.5h7.5v-63H641c-9.1 0-16.5-7.4-16.5-16.5s7.4-16.5 16.5-16.5h7.5v-63H641c-9.1 0-16.5-7.4-16.5-16.5s7.4-16.5 16.5-16.5h7.5v-63H641c-9.1 0-16.5-7.4-16.5-16.5s7.4-16.5 16.5-16.5h7.5v-63H641c-9.1 0-16.5-7.4-16.5-16.5s7.4-16.5 16.5-16.5h7.5v-63H641c-9.1 0-16.5-7.4-16.5-16.5s7.4-16.5 16.5-16.5h7.5v-63H641c-9.1 0-16.5-7.4-16.5-16.5s7.4-16.5 16.5-16.5h7.5v-20.33l-79.67-31.87z" fill="#000"/></g></svg>

<svg version="1.2" baseProfile="tiny-ps" xmlns="http://www.w3.org/2000/svg" viewBox="0 0 850 1474" width="850" height="1474">
	<title>Outline</title>
	<style>
		tspan { white-space:pre }
		.shp0 { fill: #000000 } 
	</style>
	<g id="Outline">
		<path id="&lt;Compound Path&gt;" fill-rule="evenodd" class="shp0" d="M787.77 996.55C812.81 1095.13 825.5 1217.75 825.5 1361C825.5 1370.1 818.1 1377.5 809 1377.5L513.5 1377.5L513.5 1457C513.5 1466.1 506.1 1473.5 497 1473.5L353 1473.5C343.9 1473.5 336.5 1466.1 336.5 1457L336.5 1377.5L41 1377.5C31.9 1377.5 24.5 1370.1 24.5 1361C24.5 1025.09 95.47 889.81 117.22 856.35L119.03 853.56L1.05 405.2C-1.13 396.9 3.3 388.43 11.36 385.49L168.5 328.35L168.5 257C168.5 250.21 172.57 244.2 178.88 241.68L291.04 196.82L312.99 109C314.83 101.64 321.42 96.5 329 96.5L360.5 96.5L360.5 17C360.5 7.9 367.9 0.5 377 0.5L473 0.5C482.1 0.5 489.5 7.9 489.5 17L489.5 96.5L521 96.5C528.58 96.5 535.17 101.64 537 109L558.97 196.82L671.13 241.68C677.43 244.2 681.5 250.21 681.5 257L681.5 328.35L838.64 385.49C846.71 388.42 851.14 396.9 848.96 405.2L731.81 850.35L730.96 853.56L732.78 856.35C744.66 874.62 767.59 917.14 787.77 996.55ZM681.48 856.35L696.48 856.59C696.52 855.3 696.71 854.03 697.03 852.8L813.2 411.36L681.48 363.47L681.48 856.35ZM792.37 1336.92C788.62 978.09 701.27 868.71 700.31 867.55C697.85 864.68 696.5 861.02 696.5 857.24L681.5 857.23C681.5 857.25 681.5 1072.98 681.5 1073C681.5 1082.1 674.1 1089.5 665 1089.5L569 1089.5C559.9 1089.5 552.5 1082.1 552.5 1073L552.5 307.03L508.12 129.5L341.88 129.5L297.5 307.03L297.5 1217C297.5 1226.1 290.1 1233.5 281 1233.5L185 1233.5C175.9 1233.5 168.5 1226.1 168.5 1217L168.5 363.47L36.79 411.36L152.96 852.8C154.33 858.04 153.05 863.62 149.44 867.84C148.56 868.9 61.37 978.38 57.63 1336.92L57.55 1344.5L792.45 1344.5L792.37 1336.92ZM393.5 96.5L456.5 96.5L456.5 33.5L393.5 33.5L393.5 96.5ZM201.5 1104.5L264.5 1104.5L264.5 305.01C264.5 303.67 264.67 302.33 265.01 301L281.16 236.3L201.5 268.17L201.5 288.5L209 288.5C218.1 288.5 225.5 295.9 225.5 305C225.5 314.1 218.1 321.5 209 321.5L201.5 321.5L201.5 384.5L209 384.5C218.1 384.5 225.5 391.9 225.5 401C225.5 410.1 218.1 417.5 209 417.5L201.5 417.5L201.5 480.5L209 480.5C218.1 480.5 225.5 487.9 225.5 497C225.5 506.1 218.1 513.5 209 513.5L201.5 513.5L201.5 576.5L209 576.5C218.1 576.5 225.5 583.9 225.5 593C225.5 602.1 218.1 609.5 209 609.5L201.5 609.5L201.5 672.5L209 672.5C218.1 672.5 225.5 679.9 225.5 689C225.5 698.1 218.1 705.5 209 705.5L201.5 705.5L201.5 768.5L209 768.5C218.1 768.5 225.5 775.9 225.5 785C225.5 794.1 218.1 801.5 209 801.5L201.5 801.5L201.5 864.5L209 864.5C218.1 864.5 225.5 871.9 225.5 881C225.5 890.1 218.1 897.5 209 897.5L201.5 897.5L201.5 960.5L209 960.5C218.1 960.5 225.5 967.9 225.5 977C225.5 986.1 218.1 993.5 209 993.5L201.5 993.5L201.5 1104.5ZM201.5 1200.5L264.5 1200.5L264.5 1137.5L201.5 1137.5L201.5 1200.5ZM480.5 1377.5L369.5 1377.5L369.5 1440.5L480.5 1440.5L480.5 1377.5ZM568.83 236.3L585 301C585.33 302.31 585.5 303.66 585.5 305L585.5 1056.5L648.5 1056.5L648.5 993.5L641 993.5C631.9 993.5 624.5 986.1 624.5 977C624.5 967.9 631.9 960.5 641 960.5L648.5 960.5L648.5 897.5L641 897.5C631.9 897.5 624.5 890.1 624.5 881C624.5 871.9 631.9 864.5 641 864.5L648.5 864.5L648.5 801.5L641 801.5C631.9 801.5 624.5 794.1 624.5 785C624.5 775.9 631.9 768.5 641 768.5L648.5 768.5L648.5 705.5L641 705.5C631.9 705.5 624.5 698.1 624.5 689C624.5 679.9 631.9 672.5 641 672.5L648.5 672.5L648.5 609.5L641 609.5C631.9 609.5 624.5 602.1 624.5 593C624.5 583.9 631.9 576.5 641 576.5L648.5 576.5L648.5 513.5L641 513.5C631.9 513.5 624.5 506.1 624.5 497C624.5 487.9 631.9 480.5 641 480.5L648.5 480.5L648.5 417.5L641 417.5C631.9 417.5 624.5 410.1 624.5 401C624.5 391.9 631.9 384.5 641 384.5L648.5 384.5L648.5 321.5L641 321.5C631.9 321.5 624.5 314.1 624.5 305C624.5 295.9 631.9 288.5 641 288.5L648.5 288.5L648.5 268.17L568.83 236.3Z" />
	</g>
</svg>
